X:1
T:Tu piangevi
T:Tu piangevi
T:Piero Benedetti
T:Source : Musische di Piero Benedetti---Fiorenza---Heredes di C.Marescotti---1611. Editor : André Vierendeels (26/05/15).
T:Notes : Original clefs : C1, F4 Editorial accidentals above the staff Figures in BC are notated in original print   
C:Piero Benedetti
%%score 1 2
L:1/8
Q:1/4=76
M:4/4
K:F
V:1 treble nm="Soprano" snm="S"
V:2 bass nm="BC" snm="BC"
V:1
 B6 B2 | d6 dA | B4 B4 | z2 A2 E4 | E4 z2 Ac- | c2 c2 z cBA | B4- B3 d | A4 A2 z d | _e3 c d4 | %9
w: Tu pian-|ge- vi mio|co- re,|ahi las-|so et i-|* o da quel de-|glio- * s'hu-|mo- re in|cen- dio tras-|
"^-natural" d4 z AFE | F4- F3 E | E8 | D8 | z2 AA c4- | c2 B>c G4 | F8 | z2 dd f4- | f2 _e>f c4 | %18
w: si on- de si-|fas- * sa'il|co-|re|stra- va- gan-|* za d'A- mo-|re,|stra- va- gan-|* za d'A- mo-|
 B8 | z B d2- d3 A | B3 ^F GA/B/ AB/c/ | Bc/d/ cd/_e/ d4- | dc/B/ A2 A>B A/A/A/G/- | A4 z ABc | %24
w: re|u- nir _ col|pian- t'il fo- * * * * *||* * * * * * * * * co,|_ è tur- bar|
 d2 d2 z f_ed | c4 z2 A2 | B>G A>F G>A B>c | d2 B2 c4- | c2 B2 A4 | G8 | z2 AA c4- | c2 B>c G4 | %32
w: po- i tran- quil- lo|cor ne|lie- * * * * * * *|* ti gior|_ ni suo-|i,|stra- va- gan-|* za d'A- mo-|
 F8 | z2 dd f4- | f2 _e>f c4 | B8 | z B d2- d3 A | B3 ^F G/F/E/F/ E/F/G/A/ | %38
w: re,|stra- va- gan-|* za d'A- mo-|re|u- nir _ col|pian- t'il fo- * * * * * * *|
 B/A/G/A/ G/A/B/c/ d4- | dc/B/ A2 A>B A/A/A/G/ | A4 z ABc | d2 d2 z f _e>d | c4 z2 A2 | %43
w: |* * * * * * * * * co,|_ è tur- bar|po- i tran- quil- lo|cor ne|
 B/G/A/B/ A/B/c/A/ B/A/G/A/ G/A/B/c/ | d2 B2 c4- | c2 B2 A4 | G8 |] %47
w: lie- * * * * * * * * * * * * * * *|* ti gior|_ ni suo-|i.|
V:2
 G,8- | G,4 _E,2 ^F,,2 | G,,8 |"^#" A,,8 |"^#" A,,4 F,4 | F,4 _E,4- | E,4 C,2 =B,,2 |"^#" D,6 B,2 | %8
"^#" _E,4 D,4 |"^#" D,4 D,4- | D,4 G,,4 |"^4""^#" A,,4 A,,4 |"^#" D,8 | F,6 E,>F, | %14
"^3     4               3" C,2 C,4 C,2 | F,,8 | B,6 A,>B, |"^3    4               3" F,2 F,4 F,2 | %18
 B,,8 | B,4 ^F,4 | G,4 G,,4 | G,,8 | G,,8 |"^#" D,6 C,2 | B,,4 B,,4 | F,4 F,4 | G,2 F,2 _E,2 D,C, | %27
 B,,4 F,2 _E,2 |"^3     4           3" D,2 D,4 D,2 |"^-natural" G,,8 | F,6 E,>F, | %31
"^3     4               3" C,2 C,4 C,2 | F,,8 | B,6 A,>B, |"^3     4              3" F,2 F,4 F,2 | %35
 B,,8 | B,4 ^F,4 | G,4 G,,4 | G,,8 | G,,8 |"^#" D,6 C,2 | B,,8 | F,4 F,4 | G,2 F,2 _E,2 D,C, | %44
 B,,4 F,2 _E,2 |"^3     4            3" D,2 D,4 D,2 |"^-natural" G,,8 |] %47

